img/ecology.svg

<svg id="Layer_1" xmlns="http://www.w3.org/2000/svg" viewBox="0 0 49 49"><style>.st0{fill:#323232;}</style><path class="st0" d="M24.5 0C11 0 0 11 0 24.5S11 49 24.5 49 49 38 49 24.5 38 0 24.5 0zm0 47C12.1 47 2 36.9 2 24.5S12.1 2 24.5 2 47 12.1 47 24.5 36.9 47 24.5 47z"/><path class="st0" d="M34.8 26.8c-.5-9.5-9.2-18.7-9.6-19.1l-.1-.1-.1-.1h-.1-.1H24.5 24.2h-.1s-.1 0-.1.1l-.1.1c-.4.4-9.1 9.6-9.6 19.1v1.3c.4 10.3 10 12.8 10.1 12.8h.4c.1 0 9.7-2.6 10.1-12.8V27c-.1-.1-.1-.2-.1-.2zm-18-3.5c2.2 2.1 5.4 3.5 6.7 4.1V32c-2.4-1.2-6.2-3.3-7.3-5.2.1-1.3.3-2.4.6-3.5zm2-5.1c1.5 1.7 3.6 2.6 4.7 3.1v3.9c-1.7-.8-4.4-2.2-6-4 .4-1.1.8-2.1 1.3-3zm12.7 2.9c-1.6 1.8-4.4 3.3-6 4v-3.9c1.1-.4 3.2-1.4 4.7-3.1.5 1 .9 2 1.3 3zm-6-2.1v-8c1 1.3 2.4 3.1 3.7 5.2-1 1.4-2.6 2.3-3.7 2.8zm0 12.9v-4.6c1.4-.6 4.5-2 6.7-4.1.3 1.1.5 2.3.6 3.4-1.1 1.9-4.9 4.1-7.3 5.3zm-2-12.9c-1.1-.5-2.7-1.4-3.6-2.8 1.3-2.1 2.6-3.9 3.6-5.2v8zm-7.1 10.8c2.3 2 5.7 3.6 7.1 4.3v4.4c-2.1-.9-6.2-3.3-7.1-8.7zm9.1 8.7v-4.4c1.4-.7 4.8-2.3 7.1-4.3-.9 5.4-5 7.8-7.1 8.7z"/></svg>

<?xml version="1.0" encoding="utf-8"?>
<!-- Generator: Adobe Illustrator 21.0.0, SVG Export Plug-In . SVG Version: 6.00 Build 0)  -->
<svg version="1.1" id="Layer_1" xmlns="http://www.w3.org/2000/svg" xmlns:xlink="http://www.w3.org/1999/xlink" x="0px" y="0px"
	 viewBox="0 0 49 49" style="enable-background:new 0 0 49 49;" xml:space="preserve">
<style type="text/css">
	.st0{fill:#323232;}
</style>
<path class="st0" d="M24.5,0C11,0,0,11,0,24.5S11,49,24.5,49S49,38,49,24.5S38,0,24.5,0z M24.5,47C12.1,47,2,36.9,2,24.5
	C2,12.1,12.1,2,24.5,2C36.9,2,47,12.1,47,24.5C47,36.9,36.9,47,24.5,47z"/>
<path class="st0" d="M34.8,26.8c-0.5-9.5-9.2-18.7-9.6-19.1c0,0,0,0,0,0c0,0-0.1-0.1-0.1-0.1c0,0-0.1-0.1-0.1-0.1c0,0,0,0-0.1,0
	c0,0-0.1,0-0.1,0c0,0-0.1,0-0.1,0c-0.1,0-0.1,0-0.2,0c0,0-0.1,0-0.1,0c-0.1,0-0.1,0-0.2,0c0,0-0.1,0-0.1,0c0,0,0,0,0,0
	c0,0-0.1,0-0.1,0.1c0,0-0.1,0.1-0.1,0.1c0,0,0,0,0,0c-0.4,0.4-9.1,9.6-9.6,19.1c0,0.1,0,0.1,0,0.2c0,0.4,0,0.7,0,1.1
	c0.4,10.3,10,12.8,10.1,12.8c0.1,0,0.2,0,0.2,0s0.2,0,0.2,0c0.1,0,9.7-2.6,10.1-12.8c0-0.4,0-0.7,0-1.1
	C34.8,26.9,34.8,26.8,34.8,26.8z M16.8,23.3c2.2,2.1,5.4,3.5,6.7,4.1v4.6c-2.4-1.2-6.2-3.3-7.3-5.2C16.3,25.5,16.5,24.4,16.8,23.3z
	 M18.8,18.2c1.5,1.7,3.6,2.6,4.7,3.1v3.9c-1.7-0.8-4.4-2.2-6-4C17.9,20.1,18.3,19.1,18.8,18.2z M31.5,21.1c-1.6,1.8-4.4,3.3-6,4
	v-3.9c1.1-0.4,3.2-1.4,4.7-3.1C30.7,19.1,31.1,20.1,31.5,21.1z M25.5,19v-8c1,1.3,2.4,3.1,3.7,5.2C28.2,17.6,26.6,18.5,25.5,19z
	 M25.5,31.9v-4.6c1.4-0.6,4.5-2,6.7-4.1c0.3,1.1,0.5,2.3,0.6,3.4C31.7,28.5,27.9,30.7,25.5,31.9z M23.5,19c-1.1-0.5-2.7-1.4-3.6-2.8
	c1.3-2.1,2.6-3.9,3.6-5.2V19z M16.4,29.8c2.3,2,5.7,3.6,7.1,4.3v4.4C21.4,37.6,17.3,35.2,16.4,29.8z M25.5,38.5v-4.4
	c1.4-0.7,4.8-2.3,7.1-4.3C31.7,35.2,27.6,37.6,25.5,38.5z"/>
</svg>
